X: 51
T:the Duke of Richmond
B:William Marshall Volume 2nd Of A Collection Of Scottish Melodies (1845)
C:William Marshall
L:1/8
M:C
O:Scotland
R:Air
Z:Clark Bernst + Richard Robinson
%%Page:16 - 1
F:http://richardrobinson.tunebook.org.uk/tune/3894
%%TBL:{"version":1,"type":"tune","id":"3894"}
K:Bb
%%staves {1 2}
V:1
"^SLOW" \
!trill!f2{=ef} (e/d/)(c/B/) (A/B/)(G/=E/) ~F2 | (~F>B)(d>B) (f/e/)d/e/ [Fc]2 | \
!trill!f2 (e/d/)(c/B/) (A/B/)(G/=E/) F2 | (B,/D/F/B/) (d/f/e/d/) !trill![Ac]2 [FB]2 |
!trill!f2{=ef} (e/d/)(c/B/) (A/B/)(G/=E/) ~F2 | (~F>B)(d>B) (f/e/)d/e/ [Fc]2 | \
!trill!f2 (e/d/)(c/B/) (A/B/)(G/=E/) F2 | (B,/D/F/B/) (d/f/e/d/) !trill![Ac]2 [FB]2 |]
{B}!trill!c2 (B/A/)(G/F/) (F/A/)(c/d/) e2 | (d>B) (g>f) (=e/f/)g/e/ f2 | \
(g/f/g/a/) .b>.B (e/d/e/f/) .g.E | (c>~d) (e>d) c/B/A/G/ {=E}F2 |
(B>~d) (c>~d) A/G/F/E/ {=B}c2 | (c>~e)(d>~f) e/d/c/B/ f2 | \
(g/f/g/a/) (b/g/)f/e/ (d/f/g/a/) (b/f/)d/B/ | (B,/D/F/B/) (d/f/e/d/) !trill![Ac]2 [DB]2 |]
V:2 middle=d clef=bass
L:1/16
Bbdb fbdb Bbeb dbBb | [bd']f[bd']f [bd']f[bd']f [ae']f[ae']f [ae']f[ae']f | \
Bbdb fbdb Bbeb dbBb | B3b [fb]d'c'b f2[c'e']2 [bd']4 | \
Bbdb fbdb Bbeb dbBb | [bd']f[bd']f [bd']f[bd']f [ae']f[ae']f [ae']f[ae']f | \
Bbdb fbdb Bbeb dbBb | B3b [fb]d'c'b f2[c'e']2 [bd']4 |]
[c'e']f[c'e']f [c'e']f[c'e']f [c'e']f[c'e']f [c'e']f[c'e']f |
[bd']f[bd']f [bd']f[bd']f g[bc'][bc'][bc'] ac'f'd' |  \
[be']3[be'] d'bf'_a' g'3d' e'ec'b | \
f'8 f'4e'4 & A,3B, CD3 E4 EFGF | \
d'^c'd'b agab c'2e'2 afab & F,8F,8 | agac' babd' c'ae'd' d'bc'd' & F,8F,8 | \
e'2e'2 e'2d'c' d'2b2 b4 & B,2B,2 B,4 B,2E,2 D,4 | b2b2 bd'c'b f2e'2 b4 & B,,2D,2 F,4 F,2C2 B,,4 |]

